images/zhuyin/17.svg

<svg width="50" height="50" viewBox="0 0 50 50" fill="none" xmlns="http://www.w3.org/2000/svg">
<path d="M20.5234 16.3672L21.0859 16.4609L21.7188 16.5312C22.1094 16.5312 23.4688 16.4766 25.7969 16.3672C28.7031 16.1328 30.3281 15.9141 30.6719 15.7109C30.9844 15.5234 31.2188 15.4297 31.375 15.4297C31.5469 15.4297 31.8203 15.6094 32.1953 15.9688C32.6484 16.4062 32.875 16.7188 32.875 16.9062C32.875 17.0938 32.7734 17.3203 32.5703 17.5859C32.3359 17.8516 32.0938 18.4766 31.8438 19.4609C31.5312 20.4453 31.375 20.9688 31.375 21.0312C31.375 21.1094 31.3984 21.25 31.4453 21.4531C31.5234 21.6406 31.5625 21.7812 31.5625 21.875C31.5625 22.25 30.9219 22.4609 29.6406 22.5078C26.9531 22.6172 24.5312 22.8828 22.375 23.3047C22.2344 25.3359 21.8359 27.1797 21.1797 28.8359C20.6016 30.2891 19.7969 31.5547 18.7656 32.6328C17.9844 33.4609 17.4375 33.875 17.125 33.875C17.0625 33.875 17.0312 33.8438 17.0312 33.7812L17.1953 33.5703C17.9297 32.7734 18.6484 31.4531 19.3516 29.6094C20.0547 27.7969 20.4062 26.1562 20.4062 24.6875C20.4062 23.8281 20.3203 23.0625 20.1484 22.3906C20.0078 22.0781 19.9375 21.875 19.9375 21.7812C19.9375 21.5469 20.0938 21.4297 20.4062 21.4297C20.5469 21.4297 20.8594 21.4844 21.3438 21.5938C21.9219 21.7188 22.2656 21.7812 22.375 21.7812L28.8438 21.125C29.5469 21.0156 29.9844 20.5547 30.1562 19.7422C30.3438 18.8047 30.4375 18.1406 30.4375 17.75C30.4375 17.5156 30.2188 17.3984 29.7812 17.3984C26.7031 17.5547 24.2656 17.7734 22.4688 18.0547L22 18.125C21.7656 18.125 21.4297 17.9141 20.9922 17.4922C20.5391 17.0391 20.3125 16.7188 20.3125 16.5312C20.3125 16.4219 20.3828 16.3672 20.5234 16.3672Z" fill="#333333"/>
<path d="M20.5234 16.3672L20.6056 15.874L20.5648 15.8672H20.5234V16.3672ZM21.0859 16.4609L21.0037 16.9541L21.0172 16.9564L21.0307 16.9579L21.0859 16.4609ZM21.7188 16.5312L21.6635 17.0282L21.6911 17.0312H21.7188V16.5312ZM25.7969 16.3672L25.8203 16.8666L25.8287 16.8662L25.8371 16.8656L25.7969 16.3672ZM30.6719 15.7109L30.9262 16.1414L30.9291 16.1397L30.6719 15.7109ZM32.1953 15.9688L32.5426 15.609L32.5413 15.6078L32.1953 15.9688ZM32.5703 17.5859L32.9452 17.9167L32.9568 17.9036L32.9675 17.8897L32.5703 17.5859ZM31.8438 19.4609L32.3203 19.6122L32.3248 19.5982L32.3284 19.584L31.8438 19.4609ZM31.4453 21.4531L30.9581 21.5656L30.9676 21.6066L30.9838 21.6454L31.4453 21.4531ZM29.6406 22.5078L29.6223 22.0081L29.6203 22.0082L29.6406 22.5078ZM22.375 23.3047L22.279 22.814L21.9027 22.8876L21.8762 23.2702L22.375 23.3047ZM21.1797 28.8359L21.6443 29.0208L21.6445 29.0201L21.1797 28.8359ZM18.7656 32.6328L18.4043 32.2872L18.4019 32.2897L18.7656 32.6328ZM17.0312 33.7812L16.6366 33.4743L16.5312 33.6097V33.7812H17.0312ZM17.1953 33.5703L16.8276 33.2315L16.8135 33.2468L16.8006 33.2633L17.1953 33.5703ZM19.3516 29.6094L18.8854 29.4285L18.8844 29.4312L19.3516 29.6094ZM20.1484 22.3906L20.6328 22.2667L20.6221 22.2248L20.6044 22.1854L20.1484 22.3906ZM21.3438 21.5938L21.2336 22.0815L21.2381 22.0825L21.3438 21.5938ZM22.375 21.7812V22.2812H22.4003L22.4255 22.2787L22.375 21.7812ZM28.8438 21.125L28.8942 21.6224L28.9075 21.6211L28.9206 21.6191L28.8438 21.125ZM30.1562 19.7422L30.6455 19.8457L30.6465 19.8402L30.1562 19.7422ZM29.7812 17.3984V16.8984H29.7686L29.7559 16.8991L29.7812 17.3984ZM22.4688 18.0547L22.5429 18.5492L22.5461 18.5487L22.4688 18.0547ZM22 18.125V18.625H22.0373L22.0742 18.6195L22 18.125ZM20.9922 17.4922L20.6386 17.8458L20.6451 17.8521L20.9922 17.4922ZM20.4412 16.8604L21.0037 16.9541L21.1681 15.9677L20.6056 15.874L20.4412 16.8604ZM21.0307 16.9579L21.6635 17.0282L21.774 16.0343L21.1412 15.964L21.0307 16.9579ZM21.7188 17.0312C22.1244 17.0312 23.4995 16.9757 25.8203 16.8666L25.7734 15.8677C23.438 15.9775 22.0944 16.0312 21.7188 16.0312V17.0312ZM25.8371 16.8656C27.2934 16.7481 28.4365 16.634 29.262 16.5229C29.6742 16.4674 30.0146 16.4117 30.2786 16.3551C30.5211 16.3032 30.7619 16.2385 30.9262 16.1414L30.4175 15.2805C30.4235 15.2769 30.4031 15.289 30.3341 15.3105C30.2704 15.3304 30.1832 15.3529 30.0691 15.3773C29.8409 15.4262 29.5289 15.4779 29.1286 15.5318C28.3292 15.6394 27.2066 15.7519 25.7567 15.8688L25.8371 16.8656ZM30.9291 16.1397C31.0716 16.0542 31.1835 15.9979 31.2677 15.9642C31.3578 15.9282 31.3876 15.9297 31.375 15.9297V14.9297C31.2061 14.9297 31.0407 14.978 30.8963 15.0358C30.7462 15.0958 30.5846 15.1802 30.4146 15.2822L30.9291 16.1397ZM31.375 15.9297C31.3338 15.9297 31.3177 15.9197 31.3359 15.9271C31.3522 15.9336 31.3844 15.9495 31.4344 15.9823C31.5353 16.0486 31.6727 16.1604 31.8494 16.3297L32.5413 15.6078C32.343 15.4177 32.1561 15.26 31.9836 15.1466C31.8276 15.0441 31.613 14.9297 31.375 14.9297V15.9297ZM31.848 16.3285C32.0649 16.5379 32.2115 16.7023 32.3003 16.8247C32.3444 16.8857 32.367 16.9263 32.3771 16.9486C32.3885 16.9738 32.375 16.9557 32.375 16.9062H33.375C33.375 16.6424 33.2312 16.4051 33.1099 16.2378C32.9721 16.0477 32.7788 15.8371 32.5426 15.609L31.848 16.3285ZM32.375 16.9062C32.375 16.9266 32.3558 17.0433 32.1731 17.2822L32.9675 17.8897C33.1911 17.5973 33.375 17.2609 33.375 16.9062H32.375ZM32.1954 17.2551C32.0183 17.4558 31.8736 17.7458 31.7467 18.0732C31.6156 18.4115 31.4869 18.835 31.3591 19.3379L32.3284 19.584C32.4506 19.1025 32.568 18.7213 32.6791 18.4346C32.7944 18.137 32.8879 17.9817 32.9452 17.9167L32.1954 17.2551ZM31.3672 19.3096C31.2107 19.8026 31.0925 20.1829 31.0131 20.4488C30.9735 20.5813 30.9426 20.6888 30.9212 20.7691C30.9106 20.8089 30.9011 20.8463 30.894 20.8789C30.8908 20.8932 30.875 20.9605 30.875 21.0312H31.875C31.875 21.0864 31.864 21.1237 31.8707 21.0935C31.8733 21.0817 31.8785 21.0603 31.8874 21.0268C31.9051 20.9606 31.9327 20.864 31.9713 20.7348C32.0482 20.4773 32.1643 20.1036 32.3203 19.6122L31.3672 19.3096ZM30.875 21.0312C30.875 21.174 30.9123 21.3671 30.9581 21.5656L31.9325 21.3407C31.9104 21.245 31.8952 21.1698 31.8858 21.1131C31.8755 21.0517 31.875 21.029 31.875 21.0312H30.875ZM30.9838 21.6454C31.0177 21.7269 31.0391 21.7886 31.0514 21.833C31.0648 21.8811 31.0625 21.8911 31.0625 21.875H32.0625C32.0625 21.6745 31.9876 21.4547 31.9069 21.2608L30.9838 21.6454ZM31.0625 21.875C31.0625 21.7037 31.2213 21.7422 30.9257 21.8395C30.6737 21.9225 30.2502 21.9852 29.6223 22.0081L29.6589 23.0075C30.3123 22.9836 30.8497 22.9174 31.2384 22.7894C31.5834 22.6758 32.0625 22.4213 32.0625 21.875H31.0625ZM29.6203 22.0082C26.9128 22.1184 24.465 22.3863 22.279 22.814L22.471 23.7954C24.5975 23.3793 26.9935 23.116 29.661 23.0074L29.6203 22.0082ZM21.8762 23.2702C21.7386 25.2573 21.3497 27.0496 20.7148 28.6518L21.6445 29.0201C22.3222 27.3098 22.7301 25.4146 22.8738 23.3392L21.8762 23.2702ZM20.7151 28.6511C20.1596 30.0474 19.389 31.2578 18.4043 32.2872L19.1269 32.9784C20.2048 31.8516 21.0435 30.5307 21.6443 29.0208L20.7151 28.6511ZM18.4019 32.2897C18.0197 32.6949 17.7094 32.9829 17.4677 33.1658C17.347 33.2572 17.2539 33.3143 17.1863 33.3469C17.1142 33.3816 17.0989 33.375 17.125 33.375V34.375C17.3074 34.375 17.4775 34.3166 17.6204 34.2478C17.7675 34.1769 17.9186 34.0787 18.0714 33.9631C18.3766 33.732 18.7303 33.3989 19.1293 32.9759L18.4019 32.2897ZM17.125 33.375C17.1708 33.375 17.297 33.3868 17.4082 33.498C17.5195 33.6092 17.5312 33.7354 17.5312 33.7812H16.5312C16.5312 33.8896 16.5587 34.0627 16.7011 34.2051C16.8436 34.3476 17.0167 34.375 17.125 34.375V33.375ZM17.4259 34.0882L17.59 33.8773L16.8006 33.2633L16.6366 33.4743L17.4259 34.0882ZM17.563 33.9092C18.3624 33.0417 19.1085 31.6501 19.8187 29.7875L18.8844 29.4312C18.1884 31.2562 17.4969 32.5052 16.8276 33.2315L17.563 33.9092ZM19.8177 29.7902C20.5364 27.9377 20.9062 26.2345 20.9062 24.6875H19.9062C19.9062 26.078 19.573 27.6561 18.8854 29.4285L19.8177 29.7902ZM20.9062 24.6875C20.9062 23.7958 20.8172 22.9874 20.6328 22.2667L19.664 22.5145C19.8234 23.1376 19.9062 23.8604 19.9062 24.6875H20.9062ZM20.6044 22.1854C20.5371 22.0358 20.491 21.9221 20.4627 21.8404C20.4486 21.7996 20.4409 21.7725 20.4372 21.7568C20.4326 21.7371 20.4375 21.7494 20.4375 21.7812H19.4375C19.4375 21.9196 19.4818 22.0636 19.5177 22.1675C19.5598 22.2889 19.6192 22.4329 19.6925 22.5958L20.6044 22.1854ZM20.4375 21.7812C20.4375 21.7777 20.4381 21.7982 20.4237 21.8305C20.408 21.8658 20.3828 21.8965 20.3547 21.9176C20.3294 21.9365 20.3136 21.9389 20.3224 21.9367C20.3318 21.9344 20.3577 21.9297 20.4062 21.9297V20.9297C20.2019 20.9297 19.9575 20.9655 19.7547 21.1176C19.5248 21.29 19.4375 21.5421 19.4375 21.7812H20.4375ZM20.4062 21.9297C20.4798 21.9297 20.7334 21.9685 21.2336 22.0815L21.4539 21.106C20.9854 21.0002 20.614 20.9297 20.4062 20.9297V21.9297ZM21.2381 22.0825C21.5294 22.1454 21.766 22.1936 21.9457 22.2263C22.108 22.2558 22.267 22.2812 22.375 22.2812V21.2812C22.3838 21.2812 22.3702 21.2815 22.3173 21.2742C22.2704 21.2677 22.2068 21.2574 22.1246 21.2424C21.9606 21.2126 21.7362 21.1671 21.4494 21.105L21.2381 22.0825ZM22.4255 22.2787L28.8942 21.6224L28.7933 20.6276L22.3245 21.2838L22.4255 22.2787ZM28.9206 21.6191C29.3676 21.5495 29.758 21.3617 30.0619 21.0415C30.361 20.7264 30.5461 20.3152 30.6454 19.8457L29.6671 19.6387C29.5945 19.9817 29.475 20.2072 29.3366 20.3531C29.203 20.4938 29.023 20.5911 28.7669 20.6309L28.9206 21.6191ZM30.6465 19.8402C30.8339 18.9035 30.9375 18.1955 30.9375 17.75H29.9375C29.9375 18.0857 29.8536 18.7059 29.666 19.6441L30.6465 19.8402ZM30.9375 17.75C30.9375 17.6107 30.904 17.4654 30.821 17.332C30.739 17.2002 30.6261 17.108 30.5095 17.0456C30.2914 16.9287 30.0283 16.8984 29.7812 16.8984V17.8984C29.8697 17.8984 29.9348 17.9045 29.9805 17.9126C30.0273 17.921 30.0419 17.9295 30.0373 17.9271C30.0302 17.9232 29.9993 17.9043 29.972 17.8603C29.9437 17.8149 29.9375 17.7721 29.9375 17.75H30.9375ZM29.7559 16.8991C26.6705 17.0557 24.2133 17.2755 22.3914 17.5607L22.5461 18.5487C24.318 18.2713 26.7357 18.0537 29.8066 17.8978L29.7559 16.8991ZM22.3946 17.5602L21.9258 17.6305L22.0742 18.6195L22.5429 18.5492L22.3946 17.5602ZM22 17.625C22.0215 17.625 21.9754 17.6295 21.8382 17.5434C21.7104 17.4631 21.5448 17.3305 21.3393 17.1323L20.6451 17.8521C20.8771 18.0758 21.0982 18.2595 21.3064 18.3902C21.5051 18.515 21.7441 18.625 22 18.625V17.625ZM21.3457 17.1386C21.1284 16.9212 20.9806 16.7506 20.8906 16.6234C20.8458 16.56 20.8224 16.5173 20.8116 16.4931C20.7993 16.4654 20.8125 16.4825 20.8125 16.5312H19.8125C19.8125 16.7927 19.9542 17.0312 20.0742 17.2008C20.2108 17.3939 20.4029 17.61 20.6386 17.8457L21.3457 17.1386ZM20.8125 16.5312C20.8125 16.5567 20.8084 16.6024 20.7853 16.6564C20.7608 16.7135 20.7215 16.7645 20.6722 16.8029C20.5817 16.8733 20.5041 16.8672 20.5234 16.8672V15.8672C20.4021 15.8672 20.2191 15.8884 20.0583 16.0135C19.8735 16.1572 19.8125 16.3612 19.8125 16.5312H20.8125Z" fill="#333333"/>
</svg>

<svg xmlns="http://www.w3.org/2000/svg" width="50" height="50" fill="none"><path fill="#333" d="m20.523 16.367.563.094.633.07c.39 0 1.75-.054 4.078-.164 2.906-.234 4.531-.453 4.875-.656.312-.188.547-.281.703-.281.172 0 .445.18.82.539.453.437.68.75.68.937 0 .188-.102.414-.305.68-.234.266-.476.89-.726 1.875-.313.984-.469 1.508-.469 1.57 0 .078.023.219.07.422.078.188.117.328.117.422 0 .375-.64.586-1.921.633-2.688.11-5.11.375-7.266.797-.14 2.03-.54 3.875-1.195 5.53a11.669 11.669 0 0 1-2.414 3.798c-.782.828-1.328 1.242-1.641 1.242-.063 0-.094-.031-.094-.094l.164-.21c.735-.798 1.453-2.118 2.157-3.962.703-1.812 1.054-3.453 1.054-4.922 0-.859-.086-1.625-.258-2.296-.14-.313-.21-.516-.21-.61 0-.234.156-.351.468-.351.14 0 .453.054.938.164.578.125.922.187 1.031.187l6.469-.656c.703-.11 1.14-.57 1.312-1.383.188-.937.282-1.601.282-1.992 0-.234-.22-.352-.657-.352-3.078.157-5.515.375-7.312.657l-.469.07c-.234 0-.57-.21-1.008-.633-.453-.453-.68-.773-.68-.96 0-.11.07-.165.211-.165Z"/><path fill="#333" d="m20.523 16.367.083-.493-.041-.007h-.042v.5Zm.563.094-.082.493.013.002.014.002.055-.497Zm.633.07-.056.497.028.003h.028v-.5Zm4.078-.164.023.5h.009l.008-.001-.04-.499Zm4.875-.656.254.43.003-.001-.257-.43Zm1.523.258.348-.36-.002-.001-.346.36Zm.375 1.617.375.33.012-.012.01-.014-.397-.304Zm-.726 1.875.476.151.005-.014.003-.014-.484-.123Zm-.399 1.992-.487.113.01.04.016.04.461-.193Zm-1.804 1.055-.019-.5h-.002l.02.5Zm-7.266.797-.096-.491-.376.074-.027.382.499.035Zm-1.195 5.53.464.186-.464-.185Zm-2.414 3.798-.362-.346-.002.003.364.343ZM17.03 33.78l-.394-.307-.106.136v.171h.5Zm.164-.21-.367-.34-.014.016-.013.016.394.307Zm2.157-3.962-.467-.18v.002l.467.178Zm.796-7.218.485-.124-.01-.042-.019-.04-.456.206Zm1.196-.797-.11.487.004.002.106-.49Zm1.031.187v.5h.025l.026-.002-.051-.498Zm6.469-.656.05.497h.014l.013-.003-.077-.494Zm1.312-1.383.49.104v-.006l-.49-.098Zm-.375-2.344v-.5h-.012l-.013.001.025.5Zm-7.312.657.074.494h.003l-.077-.494Zm-.469.07v.5h.037l.037-.006-.074-.494Zm-1.008-.633-.353.354.006.006.347-.36Zm-.55-.632.562.094.164-.986-.562-.094-.165.986Zm.589.098.633.07.11-.994-.633-.07-.11.994Zm.688.073c.405 0 1.78-.055 4.101-.164l-.047-1c-2.335.11-3.679.164-4.054.164v1Zm4.118-.165c1.456-.118 2.6-.232 3.425-.343.412-.056.753-.111 1.017-.168.242-.052.483-.117.647-.214l-.508-.86c.006-.004-.015.008-.084.03-.064.02-.15.042-.265.066-.228.05-.54.1-.94.155-.8.107-1.922.22-3.372.337l.08.997Zm5.092-.726c.143-.086.255-.142.339-.176.09-.036.12-.034.107-.034v-1a1.31 1.31 0 0 0-.479.106 3.44 3.44 0 0 0-.481.246l.514.858Zm.446-.21c-.041 0-.057-.01-.04-.003a.607.607 0 0 1 .1.055c.1.067.238.178.414.348l.692-.722a4.08 4.08 0 0 0-.557-.461c-.156-.103-.371-.217-.609-.217v1Zm.473.398c.217.21.364.374.452.497a.777.777 0 0 1 .077.124c.011.025-.002.007-.002-.043h1c0-.264-.144-.5-.265-.668-.138-.19-.331-.4-.567-.629l-.695.72Zm.527.578c0 .02-.02.137-.202.376l.794.608c.224-.293.408-.63.408-.984h-1Zm-.18.35c-.177.2-.321.49-.448.817-.131.338-.26.762-.388 1.265l.97.246c.122-.482.239-.863.35-1.15.115-.297.209-.452.266-.517l-.75-.662Zm-.828 2.054c-.156.493-.274.873-.354 1.139a11.764 11.764 0 0 0-.119.43c-.003.014-.019.081-.019.152h1c0 .055-.011.093-.004.063a11.134 11.134 0 0 1 .1-.359c.077-.258.193-.631.35-1.123l-.954-.302Zm-.492 1.721c0 .143.037.336.083.535l.975-.225a3.843 3.843 0 0 1-.047-.228c-.01-.061-.011-.084-.011-.082h-1Zm.109.614c.034.082.055.144.067.188.014.048.012.058.012.042h1c0-.2-.075-.42-.156-.614l-.923.384Zm.078.23c0-.171.16-.133-.136-.035-.252.082-.676.145-1.304.168l.037 1c.653-.024 1.19-.09 1.58-.219.344-.113.823-.368.823-.914h-1Zm-1.442.133c-2.707.11-5.155.378-7.341.806l.192.981c2.127-.416 4.523-.679 7.19-.788l-.04-.999Zm-7.744 1.262c-.137 1.987-.526 3.78-1.161 5.382l.93.368c.677-1.71 1.085-3.605 1.229-5.68l-.998-.07Zm-1.16 5.381a11.17 11.17 0 0 1-2.312 3.636l.723.691a12.17 12.17 0 0 0 2.517-3.957l-.929-.37Zm-2.314 3.639c-.382.405-.693.693-.934.876-.121.091-.214.148-.282.18-.072.036-.087.029-.061.029v1c.182 0 .352-.058.495-.127.147-.071.299-.17.451-.285.306-.231.66-.564 1.058-.987l-.727-.686Zm-1.277 1.085c.046 0 .172.012.283.123a.407.407 0 0 1 .123.283h-1c0 .109.028.282.17.424.143.143.316.17.424.17v-1Zm.3.713.165-.21-.79-.615-.163.211.789.614Zm.138-.179c.8-.867 1.546-2.259 2.256-4.121l-.935-.357c-.696 1.825-1.387 3.074-2.056 3.8l.735.678Zm2.255-4.119c.718-1.852 1.088-3.555 1.088-5.102h-1c0 1.39-.333 2.968-1.02 4.74l.932.362Zm1.088-5.102c0-.892-.089-1.7-.273-2.421l-.969.248c.16.623.242 1.345.242 2.172h1Zm-.302-2.503a4.403 4.403 0 0 1-.141-.345.919.919 0 0 1-.026-.083c-.004-.02 0-.008 0 .024h-1c0 .139.045.283.08.387.043.12.102.265.175.428l.912-.41Zm-.166-.404c0-.003 0 .017-.014.05a.225.225 0 0 1-.07.087c-.025.018-.04.02-.032.019a.375.375 0 0 1 .084-.007v-1c-.204 0-.448.035-.651.188a.807.807 0 0 0-.317.663h1Zm-.032.149c.074 0 .327.038.828.151l.22-.975c-.469-.106-.84-.176-1.048-.176v1Zm.832.152c.291.063.528.112.708.144.162.03.321.055.429.055v-1c.009 0-.005 0-.058-.007a4.725 4.725 0 0 1-.192-.032c-.164-.03-.389-.075-.676-.137l-.21.977Zm1.188.197 6.468-.657-.1-.994-6.47.656.101.995Zm6.495-.66c.447-.07.837-.257 1.14-.578.3-.315.485-.726.584-1.195l-.978-.207c-.073.343-.192.568-.33.714a.95.95 0 0 1-.57.278l.154.988Zm1.726-1.779c.187-.936.29-1.645.29-2.09h-1c0 .336-.083.956-.271 1.894l.98.196Zm.29-2.09a.784.784 0 0 0-.428-.704c-.218-.117-.48-.148-.728-.148v1c.089 0 .154.006.2.015.046.008.06.017.056.014a.192.192 0 0 1-.065-.067.217.217 0 0 1-.035-.11h1Zm-1.181-.85c-3.085.156-5.543.376-7.365.66l.155.989c1.772-.278 4.19-.495 7.26-.651l-.05-.999Zm-7.361.66-.47.07.15.99.468-.07-.148-.99Zm-.395.065c.021 0-.025.005-.162-.082a3.276 3.276 0 0 1-.499-.41l-.694.72c.232.223.453.406.661.537.2.125.438.235.694.235v-1Zm-.654-.486a4.3 4.3 0 0 1-.455-.516.83.83 0 0 1-.08-.13c-.012-.028.002-.01.002.038h-1c0 .262.141.5.261.67.137.193.329.409.565.645l.707-.707Zm-.534-.608a.322.322 0 0 1-.027.125.373.373 0 0 1-.113.147c-.09.07-.168.064-.149.064v-1a.748.748 0 0 0-.465.146.645.645 0 0 0-.245.518h1Z"/></svg>
